src/_partials/tentacle-2.svg

<svg viewBox="-155.188 84.302 116.716 129.955" role="img" aria-hidden="true" focusable="false">
	<path fill="#eee" d="M-130.89 213.54c-3.98-.37-8-1.5-10.45-2.92-3.21-1.86-7.22-6.6-9.49-11.24-2.52-5.13-3.4-8.4-3.74-13.76-.58-9.3 2.53-15.65 9.3-18.98 2.57-1.26 3.52-1.5 6.23-1.48 3.94.01 6.52 1.1 9.27 3.9 5.48 5.57 5.96 13.98.95 16.57-.78.4-1.53.63-1.65.51-.12-.12.2-.45.72-.73 1.31-.7 2.32-2.84 2.3-4.89-.02-5.28-6.27-10.86-11.14-9.94-3.43.64-6.66 4.31-7.3 8.3-.34 2.17.4 6.38 1.7 9.7 2.95 7.41 10.32 14.52 16.84 16.22 2.63.69 3.47.72 6.24.25 1.76-.3 5-1.3 7.2-2.2 6.11-2.54 8.23-3.07 12.18-3.1 3.01 0 4.09.2 6.27 1.21 1.45.68 3.26 1.67 4.01 2.2.75.54 1.5.84 1.67.68 1.09-1.1-4.55-4.47-8.82-5.27-4.04-.76-7.58-.05-15.4 3.1-5.89 2.38-6.66 2.58-10.02 2.59-2.99 0-4.09-.2-6.14-1.18a22.32 22.32 0 01-3.58-2.07l-1.08-.89 3 .2c4.53.28 5.7-.11 11.13-3.75 7.29-4.88 12.94-6.81 19.87-6.77 4.07.03 8.05 1.05 10.45 2.7 1.08.75 1.6.79 1.6.13 0-2.04 4.5-10.61 7.56-14.37.84-1.04 1.54-2.1 1.54-2.37 0-.58-1.5-1-10.24-2.8-13.17-2.72-18.36-5.44-21.8-11.43-.78-1.36-.6-1.27 1.71.9 4.42 4.13 9.08 5.58 20.78 6.43 3.62.27 8.39.82 10.58 1.24l3.98.76 1.36-1.3c.75-.72 1.36-1.52 1.35-1.79 0-.26-1.04-1.6-2.3-2.98-3.05-3.33-6.56-8.26-8.22-11.53-1.7-3.35-3.12-8.79-3.12-12 0-3.38 1.23-8.5 2.8-11.6a25.7 25.7 0 001.3-2.84c0-.66-3.74-.09-7.44 1.15a46.79 46.79 0 00-22.46 16.66c-1.78 2.46-1.7 1.79.33-3.14 3.6-8.67 11.7-17.45 20.66-22.39 3.5-1.92 10.08-3.95 13.75-4.22 2.23-.17 3.54-.5 3.97-.99 1.38-1.55 3.9-6.78 4.62-9.6 1.73-6.77-1.2-13.32-6.94-15.46-4.09-1.53-10.26-.96-13.87 1.29a20.07 20.07 0 00-5.55 5.76c-.65 1.18-.71 1.21-.45.23 1.07-4.03 4.82-7.85 9.62-9.8 5.86-2.37 12.86-1.48 17.2 2.2a17.1 17.1 0 014.81 7.44c1.57 4.74.9 12.44-1.5 17.13-.5.98-.74 1.93-.53 2.1.21.17 1.6.68 3.1 1.13a32 32 0 0113.4 7.99c4 4 5.96 7.1 7.92 12.62 1.36 3.83 1.42 4.28 1.42 11.27 0 5.61-.19 7.95-.82 10.23-.78 2.84-4.42 10.71-6.94 15.01l-1.2 2.05 2.28 3.75c4.11 6.76 6.92 17.36 6.92 26.08 0 4.11-.12 4.97-.68 4.97h-10.5c-1.09 0-1.1-.05-1.1-4.44 0-2.44-.22-5.77-.47-7.4-.58-3.61-2.89-11.26-3.78-12.48-.57-.78-.76-.81-1.42-.26-.87.72-.85.88.82 6.5 1.36 4.58 2.37 13 1.92 16.02l-.31 2.06h-7.94l.02-5.35c.01-5.62-.46-9.67-1.11-9.67-.22 0-.74 1.06-1.17 2.34-.98 2.96-.72 7.52.6 10.52l.96 2.16h-31.02l-2.21-2.27c-2.56-2.63-3.51-2.96-7.44-2.6-3 .29-5.94 1.5-11.81 4.87-5.08 2.9-8.95 3.71-15.06 3.13zm6.13-10.82c.94-.6.18-1.41-1.3-1.41-1.38 0-2.08.6-1.6 1.36.34.56 2.05.59 2.9.05zm7.71-2.14c1.35-.94 1.17-2.63-.3-2.84-2.28-.32-4.83 1.68-3.94 3.1.43.72 3.09.55 4.24-.26zm27.37-3.77c0-1.53-.18-1.84-1.37-2.33-2.9-1.2-4.88-.5-4.37 1.55.35 1.39 2.23 2.5 4.26 2.53 1.42.02 1.48-.06 1.48-1.75zm45 .88c2.1-1.13 1.74-4.66-.6-5.78-1.31-.62-1.7-.63-2.82-.1-2.46 1.18-2.64 4.8-.3 6.03 1.31.69 2.21.65 3.72-.15zm-63.91-.98c2.4-1.89.63-3.78-2.74-2.94-1.54.39-2.74 2.32-2 3.22.82.98 3.32.83 4.74-.28zm10.28-1.78c1.2-1.2.58-2.45-1.6-3.17-3.75-1.24-7.26 2.2-3.71 3.64 1.81.73 4.33.5 5.3-.47zm48.63-10.29c1.12-1.42 1.2-2.78.23-4.15-1.06-1.52-2.18-1.24-4.01 1-1.89 2.3-1.91 2.4-.9 3.52 1.15 1.27 3.53 1.09 4.67-.37zm-18.98-19.59c1.94-1.9 2.03-2.22.97-3.4-1.64-1.8-5.16-.36-5.16 2.13 0 1.05 1.38 2.96 2.14 2.96.18 0 1.1-.76 2.05-1.69zm6.47-7.63c3.1-4.5 4.09-7.56 4.1-12.75.02-4.25-.08-4.76-1.47-7.6-1.81-3.68-4.45-6.12-9.07-8.4-4-1.98-3.94-2.01-6.13 3.27-1.34 3.25-1.5 4.1-1.5 7.96.01 4.66.61 6.36 4.01 11.37 1.44 2.12 7.5 8.64 8.04 8.64.17 0 1.08-1.12 2.02-2.49zm-12.4.38c.46-.42.83-1.24.83-1.82 0-1.3-1.5-2.89-2.73-2.89-.5 0-1.32.41-1.82.91s-.9 1.32-.9 1.82c0 1.2 1.56 2.73 2.8 2.73.54 0 1.36-.34 1.82-.75zm-4.14-8.36c1.01-.54 1.18-2.62.3-3.7-.94-1.18-2.03-1.29-3.26-.32-2.7 2.12-.1 5.65 2.96 4.02zm-1.22-9.65c.68-1.1-.15-2.35-1.67-2.53-1.51-.18-2.42 1.27-1.68 2.67.61 1.14 2.6 1.05 3.35-.14zm.76-5.61c.81-.98 0-2.24-1.44-2.24-.8 0-1.13.29-1.24 1.09-.25 1.72 1.57 2.5 2.68 1.15zm1.1-5.65c0-.71-.28-1.18-.79-1.28-.9-.17-1.48.92-1.07 2 .43 1.13 1.87.58 1.87-.72zm9.94-15.66c.3-.77-.82-1.83-1.5-1.4-.26.15-.47.68-.47 1.17 0 1.04 1.59 1.23 1.97.23zm1.56-4.01a.9.9 0 00-.8-.57.9.9 0 00-.8.57c-.11.34.21.57.8.57.58 0 .9-.23.8-.57zm1.25-3.08c.15-.25-.05-.58-.45-.73-.87-.34-1.36.03-.94.7.38.62 1.02.63 1.39.03zm-.16-3.4c0-.24-.22-.5-.5-.6-.26-.09-.48.18-.48.6 0 .41.22.68.49.6.27-.1.49-.37.49-.6zm-.07-3.23c0-.4-.25-.64-.54-.54-.85.28-.98 1.26-.18 1.26.4 0 .72-.32.72-.72zm-.91-2.66c0-.11-.2-.33-.46-.48-.25-.16-.45-.07-.45.2 0 .26.2.48.45.48s.46-.09.46-.2z" />
</svg>

<svg viewBox="-166.202 93.553 130.225 114.243" role="img" aria-hidden="true" focusable="false">
	<path fill="#111" d="M -130.89 213.54 C -134.87 213.17 -138.89 212.04 -141.34 210.62 C -144.55 208.76 -148.56 204.02 -150.83 199.38 C -153.35 194.25 -154.23 190.98 -154.57 185.62 C -155.15 176.32 -152.04 169.97 -145.27 166.64 C -142.7 165.38 -141.75 165.14 -139.04 165.16 C -135.1 165.17 -132.52 166.26 -129.77 169.06 C -124.29 174.63 -123.81 183.04 -128.82 185.63 C -129.6 186.03 -130.35 186.26 -130.47 186.14 C -130.59 186.02 -130.27 185.69 -129.75 185.41 C -128.44 184.71 -127.43 182.57 -127.45 180.52 C -127.47 175.24 -133.72 169.66 -138.59 170.58 C -142.02 171.22 -145.25 174.89 -145.89 178.88 C -146.23 181.05 -145.49 185.26 -144.19 188.58 C -141.24 195.99 -133.87 203.1 -127.35 204.8 C -124.72 205.49 -123.88 205.52 -121.11 205.05 C -119.35 204.75 -116.11 203.75 -113.91 202.85 C -107.8 200.31 -105.68 199.78 -101.73 199.75 C -98.72 199.75 -97.64 199.95 -95.46 200.96 C -94.01 201.64 -92.2 202.63 -91.45 203.16 C -90.7 203.7 -89.95 204 -89.78 203.84 C -88.69 202.74 -94.33 199.37 -98.6 198.57 C -102.64 197.81 -106.18 198.52 -114 201.67 C -119.89 204.05 -120.66 204.25 -124.02 204.26 C -127.01 204.26 -128.11 204.06 -130.16 203.08 C -131.415 202.502 -132.613 201.809 -133.74 201.01 L -134.82 200.12 L -131.82 200.32 C -127.29 200.6 -126.12 200.21 -120.69 196.57 C -113.4 191.69 -107.75 189.76 -100.82 189.8 C -96.75 189.83 -92.77 190.85 -90.37 192.5 C -89.29 193.25 -88.77 193.29 -88.77 192.63 C -88.77 190.59 -84.27 182.02 -81.21 178.26 C -80.37 177.22 -79.67 176.16 -79.67 175.89 C -79.67 175.31 -81.17 174.89 -89.91 173.09 C -103.08 170.37 -108.27 167.65 -111.71 161.66 C -112.49 160.3 -112.31 160.39 -110 162.56 C -105.58 166.69 -100.92 168.14 -89.22 168.99 C -85.6 169.26 -80.83 169.81 -78.64 170.23 L -74.66 170.99 L -73.3 169.69 C -72.55 168.97 -71.94 168.17 -71.95 167.9 C -71.95 167.64 -72.99 166.3 -74.25 164.92 C -77.3 161.59 -80.81 156.66 -82.47 153.39 C -84.17 150.04 -85.59 144.6 -85.59 141.39 C -85.59 138.01 -84.36 132.89 -82.79 129.79 C -82.299 128.871 -81.865 127.922 -81.49 126.95 C -81.49 126.29 -85.23 126.86 -88.93 128.1 C -97.94 131.234 -105.777 137.047 -111.39 144.76 C -113.17 147.22 -113.09 146.55 -111.06 141.62 C -107.46 132.95 -99.36 124.17 -90.4 119.23 C -86.9 117.31 -80.32 115.28 -76.65 115.01 C -74.42 114.84 -73.11 114.51 -72.68 114.02 C -71.3 112.47 -68.78 107.24 -68.06 104.42 C -66.33 97.65 -69.26 91.1 -75 88.96 C -79.09 87.43 -85.26 88 -88.87 90.25 C -91.088 91.778 -92.975 93.737 -94.42 96.01 C -95.07 97.19 -95.13 97.22 -94.87 96.24 C -93.8 92.21 -90.05 88.39 -85.25 86.44 C -79.39 84.07 -72.39 84.96 -68.05 88.64 C -65.821 90.654 -64.162 93.221 -63.24 96.08 C -61.67 100.82 -62.34 108.52 -64.74 113.21 C -65.24 114.19 -65.48 115.14 -65.27 115.31 C -65.06 115.48 -63.67 115.99 -62.17 116.44 C -57.113 117.957 -52.509 120.702 -48.77 124.43 C -44.77 128.43 -42.81 131.53 -40.85 137.05 C -39.49 140.88 -39.43 141.33 -39.43 148.32 C -39.43 153.93 -39.62 156.27 -40.25 158.55 C -41.03 161.39 -44.67 169.26 -47.19 173.56 L -48.39 175.61 L -46.11 179.36 C -42 186.12 -39.19 196.72 -39.19 205.44 C -39.19 209.55 -39.31 210.41 -39.87 210.41 L -50.37 210.41 C -51.46 210.41 -51.47 210.36 -51.47 205.97 C -51.47 203.53 -51.69 200.2 -51.94 198.57 C -52.52 194.96 -54.83 187.31 -55.72 186.09 C -56.29 185.31 -56.48 185.28 -57.14 185.83 C -58.01 186.55 -57.99 186.71 -56.32 192.33 C -54.96 196.91 -53.95 205.33 -54.4 208.35 L -54.71 210.41 L -62.65 210.41 L -62.63 205.06 C -62.62 199.44 -63.09 195.39 -63.74 195.39 C -63.96 195.39 -64.48 196.45 -64.91 197.73 C -65.89 200.69 -65.63 205.25 -64.31 208.25 L -63.35 210.41 L -94.37 210.41 L -96.58 208.14 C -99.14 205.51 -100.09 205.18 -104.02 205.54 C -107.02 205.83 -109.96 207.04 -115.83 210.41 C -120.91 213.31 -124.78 214.12 -130.89 213.54 Z M -124.76 202.72 C -123.82 202.12 -124.58 201.31 -126.06 201.31 C -127.44 201.31 -128.14 201.91 -127.66 202.67 C -127.32 203.23 -125.61 203.26 -124.76 202.72 Z M -117.05 200.58 C -115.7 199.64 -115.88 197.95 -117.35 197.74 C -119.63 197.42 -122.18 199.42 -121.29 200.84 C -120.86 201.56 -118.2 201.39 -117.05 200.58 Z M -89.68 196.81 C -89.68 195.28 -89.86 194.97 -91.05 194.48 C -93.95 193.28 -95.93 193.98 -95.42 196.03 C -95.07 197.42 -93.19 198.53 -91.16 198.56 C -89.74 198.58 -89.68 198.5 -89.68 196.81 Z M -44.68 197.69 C -42.58 196.56 -42.94 193.03 -45.28 191.91 C -46.59 191.29 -46.98 191.28 -48.1 191.81 C -50.56 192.99 -50.74 196.61 -48.4 197.84 C -47.09 198.53 -46.19 198.49 -44.68 197.69 Z M -108.59 196.71 C -106.19 194.82 -107.96 192.93 -111.33 193.77 C -112.87 194.16 -114.07 196.09 -113.33 196.99 C -112.51 197.97 -110.01 197.82 -108.59 196.71 Z M -98.31 194.93 C -97.11 193.73 -97.73 192.48 -99.91 191.76 C -103.66 190.52 -107.17 193.96 -103.62 195.4 C -101.81 196.13 -99.29 195.9 -98.32 194.93 Z M -49.68 184.64 C -48.56 183.22 -48.48 181.86 -49.45 180.49 C -50.51 178.97 -51.63 179.25 -53.46 181.49 C -55.35 183.79 -55.37 183.89 -54.36 185.01 C -53.21 186.28 -50.83 186.1 -49.69 184.64 Z M -68.66 165.05 C -66.72 163.15 -66.63 162.83 -67.69 161.65 C -69.33 159.85 -72.85 161.29 -72.85 163.78 C -72.85 164.83 -71.47 166.74 -70.71 166.74 C -70.53 166.74 -69.61 165.98 -68.66 165.05 Z M -62.19 157.42 C -59.09 152.92 -58.1 149.86 -58.09 144.67 C -58.07 140.42 -58.17 139.91 -59.56 137.07 C -61.37 133.39 -64.01 130.95 -68.63 128.67 C -72.63 126.69 -72.57 126.66 -74.76 131.94 C -76.1 135.19 -76.26 136.04 -76.26 139.9 C -76.25 144.56 -75.65 146.26 -72.25 151.27 C -70.81 153.39 -64.75 159.91 -64.21 159.91 C -64.04 159.91 -63.13 158.79 -62.19 157.42 Z M -74.59 157.8 C -74.13 157.38 -73.76 156.56 -73.76 155.98 C -73.76 154.68 -75.26 153.09 -76.49 153.09 C -76.99 153.09 -77.81 153.5 -78.31 154 C -78.81 154.5 -79.21 155.32 -79.21 155.82 C -79.21 157.02 -77.65 158.55 -76.41 158.55 C -75.87 158.55 -75.05 158.21 -74.59 157.8 Z M -78.73 149.44 C -77.72 148.9 -77.55 146.82 -78.43 145.74 C -79.37 144.56 -80.46 144.45 -81.69 145.42 C -84.39 147.54 -81.79 151.07 -78.73 149.44 Z M -79.95 139.79 C -79.27 138.69 -80.1 137.44 -81.62 137.26 C -83.13 137.08 -84.04 138.53 -83.3 139.93 C -82.69 141.07 -80.7 140.98 -79.95 139.79 Z M -79.19 134.18 C -78.38 133.2 -79.19 131.94 -80.63 131.94 C -81.43 131.94 -81.76 132.23 -81.87 133.03 C -82.12 134.75 -80.3 135.53 -79.19 134.18 Z M -78.09 128.53 C -78.09 127.82 -78.37 127.35 -78.88 127.25 C -79.78 127.08 -80.36 128.17 -79.95 129.25 C -79.52 130.38 -78.08 129.83 -78.08 128.53 Z M -68.15 112.87 C -67.85 112.1 -68.97 111.04 -69.65 111.47 C -69.91 111.62 -70.12 112.15 -70.12 112.64 C -70.12 113.68 -68.53 113.87 -68.15 112.87 Z M -66.59 108.86 C -66.72 108.528 -67.034 108.305 -67.39 108.29 C -67.746 108.305 -68.06 108.528 -68.19 108.86 C -68.3 109.2 -67.98 109.43 -67.39 109.43 C -66.81 109.43 -66.49 109.2 -66.59 108.86 Z M -65.34 105.78 C -65.19 105.53 -65.39 105.2 -65.79 105.05 C -66.66 104.71 -67.15 105.08 -66.73 105.75 C -66.35 106.37 -65.71 106.38 -65.34 105.78 Z M -65.5 102.38 C -65.5 102.14 -65.72 101.88 -66 101.78 C -66.26 101.69 -66.48 101.96 -66.48 102.38 C -66.48 102.79 -66.26 103.06 -65.99 102.98 C -65.72 102.88 -65.5 102.61 -65.5 102.38 Z M -65.57 99.15 C -65.57 98.75 -65.82 98.51 -66.11 98.61 C -66.96 98.89 -67.09 99.87 -66.29 99.87 C -65.89 99.87 -65.57 99.55 -65.57 99.15 Z M -66.48 96.49 C -66.48 96.38 -66.68 96.16 -66.94 96.01 C -67.19 95.85 -67.39 95.94 -67.39 96.21 C -67.39 96.47 -67.19 96.69 -66.94 96.69 C -66.69 96.69 -66.48 96.6 -66.48 96.49 Z" transform="matrix(0, -1, 1, 0, -246.334129, 52.50573)" />
</svg>
